Hatter-kde/actions/16/call-start.svg

<svg xmlns="http://www.w3.org/2000/svg" viewBox="0 0 16 16">
  <defs id="defs3051">
    <style type="text/css" id="current-color-scheme">
      .ColorScheme-Text {
        color:#363636;
      }
      </style>
  </defs>
 <path style="fill:currentColor;fill-opacity:1;stroke:none" 
     d="M 3.4882812 2.0019531 C 3.2034307 2.0278481 2.9960938 2.2363281 2.9960938 2.2363281 L 2.4667969 2.765625 L 2.1660156 3.0664062 C 1.7230956 4.7997962 2.1655238 6.7084425 3.5273438 8.0703125 L 7.9296875 12.472656 C 9.2917475 13.834716 11.200194 14.276904 12.933594 13.833984 L 13.234375 13.533203 L 13.763672 13.003906 C 13.763672 13.003906 14.294022 12.473709 13.763672 11.943359 L 11.484375 9.6621094 C 10.954035 9.1317694 10.423828 9.6621094 10.423828 9.6621094 L 10.158203 9.9277344 C 9.7174831 10.368444 9.0071062 10.368444 8.5664062 9.9277344 L 6.0722656 7.4335938 C 5.6315656 6.9928938 5.6315456 6.2825169 6.0722656 5.8417969 L 6.3378906 5.5761719 C 6.3378906 5.5761719 6.8682206 5.045965 6.3378906 4.515625 L 4.0566406 2.2363281 C 3.8577631 2.0374544 3.6591916 1.9864161 3.4882812 2.0019531 z "
     class="ColorScheme-Text"
     />
</svg>

<?xml version="1.0" encoding="UTF-8"?>
<svg viewBox="0 0 16 16" xmlns="http://www.w3.org/2000/svg">
 <defs id="defs3051">
  <style id="current-color-scheme" type="text/css">.ColorScheme-Text {
        color:#363636;
      }</style>
 </defs>
 <path class="ColorScheme-Text" d="m3.4883 2.002c-0.28485 0.025895-0.49219 0.23438-0.49219 0.23438l-0.83008 0.83008c-0.44292 1.7334-4.918e-4 3.642 1.3613 5.0039l4.4023 4.4023c1.3621 1.3621 3.2705 1.8042 5.0039 1.3613l0.83008-0.83008s0.53035-0.5302 0-1.0605l-2.2793-2.2812c-0.53034-0.53034-1.0605 0-1.0605 0l-0.26562 0.26562c-0.44072 0.44071-1.1511 0.44071-1.5918 0l-2.4941-2.4941c-0.4407-0.4407-0.44072-1.1511 0-1.5918l0.26562-0.26562s0.53033-0.53021 0-1.0605l-2.2812-2.2793c-0.19888-0.19887-0.39745-0.24991-0.56836-0.23438z" fill="currentColor"/>
</svg>
